X:43
T:Return Home, The
R:jig
M:6/8
L:1/8
K:Ador
a3 aga | bga fge | fde dBA | GAB deg |
a3 aga | bga fge | fde dBG | ABA A3 :|
A3 ABd | e2e e2B | ~d3 dBG | ~d3 dBG |
ABA ABd | ege e2B | ~g3 g2e | dBG A2A |
ABA ABd | ege e2B | ~d3 dBG | ~d3 dBG |
ABA ABd | ege e2B | ~g3 g2e | dBG A2A ||
